X:329
T: BIN I NET A LUSTGER SCHWEIZERBUA
N: E1482
O: Europa, Mitteleuropa, Deutschland
R: Staende -, Hirten -, Alpen - Lied
M: 3/4
L: 1/16
K: G
D2F2 | G6D2G2B2 | d6e2d4
A4d6c2 | c2B2A2B2G4
G6D2G2B2 | d6e2d4
e6F2F4 | G8z4
G4F4E4 | F4d4A4
G6F2E4 | F4d4A4
A6G2F4 | f6e2d2
A2 | B6A2g3^c | d4z2
D2E2F2 | G2e2d6F2 | G2e2d6G2
F2d2c6F2 | G4g8
G2e2d6F2 | G2e2d8
e6F2F4 | G8

